img/avto.svg

<svg id="avto_svg" viewBox="0 0 25 27" fill="none" xmlns="http://www.w3.org/2000/svg">
    <g clip-path="url(#clip0)">
        <path d="M19.0571 16.773H6.0047C5.87407 16.773 5.7503 16.718 5.66321 16.6194C5.57612 16.5231 5.53487 16.3925 5.54862 16.2619L5.98179 12.4459C6.18118 11.0157 6.99022 10.9011 7.94594 10.9011C8.0422 10.9011 8.14304 10.9011 8.24847 10.9034C8.36307 10.9034 8.48224 10.9057 8.61059 10.9057H16.4512C17.6705 10.9057 18.9333 10.9057 19.08 12.455L19.5108 16.2619C19.5246 16.3925 19.4833 16.5209 19.3963 16.6194C19.3115 16.7157 19.1877 16.773 19.0571 16.773ZM6.51809 15.8562H18.5437L18.1701 12.5513C18.1151 11.9852 18.0303 11.8248 16.4535 11.8248H8.61059C8.47995 11.8248 8.35619 11.8225 8.2393 11.8225C8.13617 11.8225 8.03991 11.8202 7.94594 11.8202C7.11398 11.8202 6.98793 11.866 6.88938 12.5627L6.51809 15.8562Z"
              fill="#ACACAC"/>
        <path d="M7.25152 24.6707H4.76023C4.57 24.6707 4.41644 24.8242 4.41644 25.0144V27.2238C4.41644 27.4141 4.57 27.5676 4.76023 27.5676H7.25152C7.44175 27.5676 7.5953 27.4141 7.5953 27.2238V25.0144C7.5953 24.8242 7.44175 24.6707 7.25152 24.6707Z"
              fill="#ACACAC"/>
        <path d="M20.1663 24.6707H17.6773C17.4871 24.6707 17.3336 24.8242 17.3336 25.0144V27.2238C17.3336 27.4141 17.4871 27.5676 17.6773 27.5676H20.1686C20.3589 27.5676 20.5124 27.4141 20.5124 27.2238V25.0144C20.5101 24.8242 20.3566 24.6707 20.1663 24.6707Z"
              fill="#ACACAC"/>
        <path d="M19.3 18.0769C19.2084 18.0127 19.0915 17.9967 18.986 18.0357L17.8882 18.4345C17.125 18.7118 16.6116 19.4429 16.6116 20.2542V22.0373C16.6116 22.2275 16.7652 22.3811 16.9554 22.3811H19.1029C19.2932 22.3811 19.4467 22.2275 19.4467 22.0373V18.3588C19.4467 18.2465 19.3917 18.1411 19.3 18.0769ZM18.7591 21.6958H17.2992V20.2565C17.2992 19.7317 17.6292 19.2618 18.122 19.0808L18.7591 18.8493V21.6958Z"
              fill="#ACACAC"/>
        <path d="M7.24929 18.4345L6.15147 18.0357C6.04604 17.9967 5.92915 18.0127 5.83748 18.0769C5.7458 18.1411 5.6908 18.2465 5.6908 18.3588V22.0396C5.6908 22.2298 5.84435 22.3834 6.03458 22.3834H8.18209C8.37232 22.3834 8.52587 22.2298 8.52587 22.0396V20.2565C8.52587 19.4429 8.01249 18.7118 7.24929 18.4345ZM7.8383 21.6958H6.37837V18.8493L7.01551 19.0808C7.50827 19.2595 7.8383 19.7317 7.8383 20.2565V21.6958Z"
              fill="#ACACAC"/>
        <path d="M15.5575 19.2024H9.74979C9.55956 19.2024 9.40601 19.3559 9.40601 19.5462C9.40601 19.7364 9.55956 19.89 9.74979 19.89H15.5575C15.7477 19.89 15.9012 19.7364 15.9012 19.5462C15.9012 19.3559 15.7477 19.2024 15.5575 19.2024Z"
              fill="#ACACAC"/>
        <path d="M15.5575 20.502H9.74979C9.55956 20.502 9.40601 20.6555 9.40601 20.8457C9.40601 21.036 9.55956 21.1895 9.74979 21.1895H15.5575C15.7477 21.1895 15.9012 21.036 15.9012 20.8457C15.9012 20.6555 15.7477 20.502 15.5575 20.502Z"
              fill="#ACACAC"/>
        <path d="M23.2788 1H1.78309C1.53098 1 1.32471 1.20627 1.32471 1.45838V5.93674C1.32471 6.5991 1.49202 7.25917 1.80601 7.8436L2.36294 8.87495V23.1878C2.36294 23.3712 2.47065 23.527 2.6265 23.6004V24.7761C2.6265 25.1566 2.93362 25.4637 3.31407 25.4637H21.7455C22.126 25.4637 22.4331 25.1566 22.4331 24.7761V23.6004C22.5889 23.527 22.6966 23.3712 22.6966 23.1878V8.87495L23.2536 7.8436C23.5698 7.26146 23.7349 6.60139 23.7349 5.93674V1.45838C23.7372 1.20627 23.5309 1 23.2788 1ZM20.5721 21.9113H4.48752V18.0907L5.32177 11.7284C5.32177 11.7192 5.32407 11.71 5.32407 11.7009C5.3997 10.8643 6.6442 10.1217 7.57471 10.1217H17.7461C18.6744 10.1217 19.9212 10.8666 19.9968 11.7032L20.5743 18.0998V21.9113H20.5721ZM4.00164 24.0909V23.3414H21.0579V24.0909H4.00164ZM22.4468 7.40814L21.8349 8.54263C21.7982 8.60909 21.7799 8.68473 21.7799 8.76036V16.1723L21.365 11.5794C21.2184 9.95902 19.3344 8.74661 17.7461 8.74661H7.57471C5.9933 8.74661 4.11394 9.94985 3.9558 11.5633L3.27969 16.7155V8.75807C3.27969 8.68243 3.26136 8.6068 3.22469 8.54034L2.61275 7.40585C2.59213 7.36918 2.57837 7.33022 2.56004 7.29125H22.4995C22.4812 7.33022 22.4674 7.37147 22.4468 7.40814ZM22.8204 5.93674C22.8204 6.08343 22.8066 6.23011 22.786 6.37679H2.34231C2.31939 6.37679 2.29876 6.38137 2.27584 6.38366C2.25522 6.23698 2.23917 6.08801 2.23917 5.93674V1.91676H22.8181V5.93674H22.8204Z"
              fill="#ACACAC"/>
        <path d="M6.09874 5.70533H4.3844C4.1323 5.70533 3.92603 5.49906 3.92603 5.24695C3.92603 4.99484 4.1323 4.78857 4.3844 4.78857H6.09874C6.35085 4.78857 6.55712 4.99484 6.55712 5.24695C6.55712 5.49906 6.35085 5.70533 6.09874 5.70533Z"
              fill="#ACACAC"/>
        <path d="M20.6935 5.70533H18.9791C18.727 5.70533 18.5208 5.49906 18.5208 5.24695C18.5208 4.99484 18.727 4.78857 18.9791 4.78857H20.6935C20.9456 4.78857 21.1518 4.99484 21.1518 5.24695C21.1518 5.49906 20.9479 5.70533 20.6935 5.70533Z"
              fill="#ACACAC"/>
        <path d="M24.1955 13.3303H23.9526C23.5079 13.3303 23.1481 13.6924 23.1481 14.1348V14.8682V15.4893L22.2107 15.6749C21.9632 15.7254 21.8005 15.966 21.8509 16.2135C21.8945 16.4313 22.0847 16.5825 22.3001 16.5825C22.3299 16.5825 22.3597 16.5802 22.3895 16.5734L23.1481 16.4244V16.4565C23.1481 16.7086 23.3544 16.9149 23.6065 16.9149H24.5416C24.7937 16.9149 25 16.7086 25 16.4565V14.1348C25 13.6924 24.6401 13.3303 24.1955 13.3303Z"
              fill="#ACACAC"/>
        <path d="M2.78924 15.6749L1.85185 15.4893V14.8682V14.1348C1.85185 13.6901 1.48973 13.3303 1.0474 13.3303H0.804455C0.36212 13.3303 0 13.6924 0 14.1348V16.4542C0 16.7063 0.206271 16.9126 0.458379 16.9126H1.39347C1.64558 16.9126 1.85185 16.7063 1.85185 16.4542V16.4244L2.61047 16.5756C2.64026 16.5825 2.67006 16.5848 2.69985 16.5848C2.913 16.5848 3.10552 16.4335 3.14906 16.2158C3.19949 15.966 3.03676 15.7254 2.78924 15.6749Z"
              fill="#ACACAC"/>
    </g>
    <defs>
        <clipPath id="clip0">
            <rect y="0.333984" width="25" height="26.5869" fill="white"/>
        </clipPath>
    </defs>
</svg>

<svg viewBox="0 0 25 27" fill="none" xmlns="http://www.w3.org/2000/svg"><g clip-path="url(#a)" fill="#000"><path d="M19.057 16.773H6.005a.461.461 0 0 1-.456-.511l.433-3.816c.2-1.43 1.008-1.545 1.964-1.545.096 0 .197 0 .302.002.115 0 .234.003.363.003h7.84c1.22 0 2.482 0 2.629 1.549l.43 3.807a.464.464 0 0 1-.453.511zm-12.539-.917h12.026l-.374-3.305c-.055-.566-.14-.726-1.717-.726H8.611l-.372-.002c-.103 0-.2-.003-.293-.003-.832 0-.958.046-1.057.743l-.37 3.293zm.734 8.814H4.76a.343.343 0 0 0-.344.344v2.21c0 .19.154.344.344.344h2.492c.19 0 .343-.154.343-.344v-2.21a.343.343 0 0 0-.343-.343zm12.914 0h-2.489a.343.343 0 0 0-.343.344v2.21c0 .19.153.344.343.344h2.492c.19 0 .343-.154.343-.344v-2.21a.347.347 0 0 0-.346-.343zm-.866-6.593a.34.34 0 0 0-.314-.041l-1.098.398a1.943 1.943 0 0 0-1.276 1.82v1.783c0 .19.153.344.343.344h2.148c.19 0 .344-.154.344-.344V18.36a.345.345 0 0 0-.147-.282zm-.54 3.619H17.3v-1.44c0-.524.33-.994.822-1.175l.637-.232v2.847zM7.25 18.434l-1.099-.398a.345.345 0 0 0-.46.323v3.68c0 .19.153.344.344.344h2.147c.19 0 .344-.153.344-.343v-1.784c0-.813-.514-1.544-1.277-1.822zm.588 3.262h-1.46v-2.847l.638.232c.492.178.822.65.822 1.175v1.44zm7.719-2.494H9.75a.343.343 0 1 0 0 .688h5.807a.343.343 0 1 0 0-.688zm0 1.3H9.75a.343.343 0 1 0 0 .688h5.807a.343.343 0 1 0 0-.688z"/><path d="M23.279 1H1.783a.46.46 0 0 0-.458.458v4.479c0 .662.167 1.322.481 1.907l.557 1.03v14.314c0 .183.108.339.264.412v1.176c0 .38.307.688.687.688h18.431a.687.687 0 0 0 .688-.688V23.6a.455.455 0 0 0 .264-.412V8.875l.557-1.031a4.007 4.007 0 0 0 .48-1.907V1.458A.456.456 0 0 0 23.28 1zm-2.707 20.911H4.488v-3.82l.834-6.363.002-.027c.076-.837 1.32-1.58 2.25-1.58h10.172c.928 0 2.175.746 2.25 1.582l.578 6.397v3.811h-.002zm-16.57 2.18v-.75h17.056v.75H4.002zM22.447 7.408l-.612 1.135a.451.451 0 0 0-.055.217v7.412l-.415-4.593c-.147-1.62-2.03-2.832-3.619-2.832H7.575c-1.582 0-3.461 1.203-3.62 2.816l-.675 5.152V8.758a.452.452 0 0 0-.055-.218l-.612-1.134c-.02-.037-.035-.076-.053-.115H22.5c-.019.04-.033.08-.053.117zm.373-1.471c0 .146-.013.293-.034.44H2.342c-.023 0-.043.004-.066.007a3.207 3.207 0 0 1-.037-.447v-4.02h20.58v4.02h.001z"/><path d="M6.099 5.705H4.384a.46.46 0 0 1-.458-.458.46.46 0 0 1 .458-.458H6.1a.46.46 0 0 1 .458.458.46.46 0 0 1-.458.458zm14.595 0h-1.715a.46.46 0 0 1-.458-.458.46.46 0 0 1 .458-.458h1.715a.458.458 0 1 1 0 .917zm3.501 7.625h-.242a.805.805 0 0 0-.805.805v1.354l-.937.186a.459.459 0 0 0 .179.898l.758-.149v.032a.46.46 0 0 0 .459.459h.935a.46.46 0 0 0 .458-.459v-2.321a.806.806 0 0 0-.805-.805zM2.79 15.675l-.938-.186v-1.354a.805.805 0 0 0-.805-.805H.804a.807.807 0 0 0-.804.805v2.32a.46.46 0 0 0 .458.458h.935a.46.46 0 0 0 .459-.459v-.03l.758.152a.46.46 0 0 0 .179-.9z"/></g><defs><clipPath id="a"><path fill="#000" d="M0 .334h25v26.587H0z"/></clipPath></defs></svg>
